X: 1724
T: Seni Candan Severim
C: Nasib´in Mehmet Yürü
O: Turkey
F: http://compmusic.upf.edu/node/140
N: hicazkar--sarki--agiraksak--seni_candan--nasibin_mehmet_yuru
N: makam= hicazkar
N: form= sarki
N: usul= agiraksak = 9/4
M: 9/4
L: 1/16
K: C _1/4B _7/8e _7/8A ^f
Q: 1/4=72
%%MIDI tuningsystem comma53
f2g4=a2 _bagf edc2 dcBc d2e2 f2g2 _7/8a2ag g4  | 
w:  ARANAĞME  | 
fga4gf e3d c4 dfed edcB c6G2 A2B2  | \
w:   | 
c2d2 e2f2 g2a2 g2f2 baag gffe d3c B3A G4  | 
w:   | 
d2cd e2dc c2Bc d2cB B3A BAAG G4 cdef g4  | 
w:   | 
f2g4=a2 _bagf edc2 dcBc d2e2 f2g2 _7/8a2ag g4  | 
w:  ARANAĞME  | 
fga4gf e3d c4 dfed edcB c6G2 A2B2  | \
w:   | 
c2d2 e2f2 g2a2 g2f2 baag gffe d3c B3A G4  | 
w:   | 
d2cd e2dc c2Bc d2cB B3A BAAG G8 z4  | \
w:   | 
z8 z4 f2g2 g8 =a2_ba g2a2 f2e2  | 
w:  Se ni  cân dan   | 
d8 z4 =a2gf f3e e2{f}ed d6c2 d2{f}ed  | \
w:  *  se ve *  rim  *  *  *  *  *  aş  | 
d4 cdef g4 f2g2 g8 =a2_ba g2a2 f2e2  | 
w:  SAZ *  *  *  *  *  kı na  kur ban   | 
d2c'4_b=a a3g bagf g8 a2b2 a2g2 f2a2  | \
w:  *  *  *  *  *  *  o *  lu *  rum   SAZ  | 
g3/2f/ed cdef g4 f2g2 g8 b3a a3g g3f  | 
w:  *  *  *  *  *  *  *  *  *  Ö lü rüm  feyz_  | 
f2gf e3/2d/e2 z2e4e2 edef d3c cBcd B3A A3G  | 
w:  *  *  *  *  *  *  i  ga râ *  *  *  *  *  mın  | 
G4 e2{f}ed e4 d2e2 edef d2c2 cBcd B2A2 G4  | \
w:  *  *  *  *  *  *  la  yi ne  *  *  *  *  *  cân   | 
Bc_7/8d4cB B3A A2{B}AG G8 g2a2 g2f2 e2f2  | 
w:  *  *  *  *  *  *  *  bu *  lu *  rum   SAZ  | 
g3/2f/ed cdef g4 f2g2 g8 b3a a3g g3f  | \
w:  *  *  *  *  *  *  *  *  *  Ö lü rüm  feyz_  | 
f2gf e3/2d/e2 z2e4e2 edef d3c cBcd B3A A3G  | 
w:  *  *  *  *  *  *  i  ga râ *  *  *  *  *  mın  | 
G4 e2{f}ed e4 d2e2 edef d2c2 cBcd B2A2 G4  | \
w:  *  *  *  *  *  *  la  yi ne  *  *  *  *  *  cân   | 
Bc_7/8d4cB B3A A2{B}AG G8 =a2_b2 a2g2 f2g2  | 
w:  *  *  *  *  *  *  *  bu *  lu *  rum   SAZ  | 
=a3_b agfg a2g4a2 a6g2 a2_1/4b2 c'2d'2 c'2_b2  | \
w:  *  *  *  *  *  *  *  San ma  öl *  mek  | 
=a2g2 f2e2 d4 a2gf f3e fee{f}d d6c2 d2{f}ed  | 
w:  *  *  *  *  *  le  bu  *  sev *  *  *  *  *  *  dâ   | 
d4 cdef g4 f2g2 g8 =a2_ba g2a2 f2e2  | \
w:  *  *  *  *  *  *  tü ke nir  kur  | 
d2c'4_b=a a3g bagf g8 a2b2 a2g2 f2g2  | 
w:  *  *  *  *  *  *  tu *  lu *  rum   SAZ  | 
=a3_b agfg a2g4a2 a6g2 a2_1/4b2 c'2d'2 c'2_b2  | \
w:  *  *  *  *  *  *  *  San ma  öl *  mek  | 
=a2g2 f2e2 d4 a2gf f3e fee{f}d d6c2 d2{f}ed  | 
w:  *  *  *  *  *  le  bu  *  sev *  *  *  *  *  *  dâ   | 
d4 cdef g4 f2g2 g8 =a2_ba g2a2 f2e2  | \
w:  *  *  *  *  *  *  tü ke nir  kur  | 
d2c'4_b=a a3g bagf g8 a2bc' bag2 f2a2  | 
w:  *  *  *  *  *  *  tu *  lu *  rum   SAZ  | 
g3/2f/ed cdef g4 f2g2 g8 b3a a3g g3f  | \
w:  *  *  *  *  *  *  *  *  *  Ö lü rüm  feyz_  | 
f2gf e3/2d/e2 z2e4e2 edef d3c cBcd B3A A3G  | 
w:  *  *  *  *  *  *  i  ga râ *  *  *  *  *  mın  | 
G4 e2{f}ed e4 d2e2 edef d2c2 cBcd B2A2 G4  | \
w:  *  *  *  *  *  *  la  yi ne  *  *  *  *  *  cân   | 
Bc_7/8d4cB B3A A2{B}AG G8 g2a2 g2f2 e2f2  | 
w:  *  *  *  *  *  *  *  bu *  lu *  rum   SAZ  | 
g3/2f/ed cdef g4 f2g2 g8 b3a a3g g3f  | \
w:  *  *  *  *  *  *  *  *  *  Ö lü rüm  feyz_  | 
f2gf e3/2d/e2 z2e4e2 edef d3c cBcd B3A A3G  | 
w:  *  *  *  *  *  *  i  ga râ *  *  *  *  *  mın  | 
G4 e2{f}ed e4 d2e2 edef d2c2 cBcd B2A2 G4  | \
w:  *  *  *  *  *  *  la  yi ne  *  *  *  *  *  cân   | 
Bc_7/8d4cB B3A A2{B}AG G8 |
w:  *  *  *  *  *  *  *  bu *  lu *  rum    | 


